X:399
T: ES ES ES UND ES
N: E1592
O: Europa, Mitteleuropa, Deutschland
R: Staende -, Handwerker -, Gesellen - Lied; Abschied, Wanderschaft
M: 4/4
L: 1/8
K: G
 | B4A4 | G2FED2
D2 | G2G2A2A2 | B4z4 |
B4A4 | G2FED2
D2 | G2G2A2A2 | B4z2
GA | B2B2B2cB | A2A2A2
BA | G2G2G2AG | F2E2D2
D2 | G2G2A2A2 | B3cd2
c2 | B4A4 | G4z4

@@@ Tune index: 5083
